X:1
T:O mio babbino caro
C:Giacomo Puccini
M:6/8
L:1/8
Q:3/8=80
K:Ab
% Soprano aria — Gianni Schicchi (1918); melody only, A section
% Range Ab4–Db5 (A–d in K:Ab)
A | A c d c B A | A6 | A c d c B A | A3 B2 c |
d2 c B A G | A6 | d2 c B c d | d c B A3 |
c3 B3 | A2 B c2 d | d c B A B c | d6 |
A c d c B A | A6 |]
